X:20
T:High Falls Clog
R:Clog
C:Bruce Osborne  --  Mar.27 1994
L:1/8
M:2/4
Z:abc by Bruce Osborne - bosborne@kos.net
K:G
D>C|B,>D G>A|B>c B>F|A>G B,>E|D2 A,>B,|
C>B, C>D|F>E F>E|D>E D>C|B,2 D>C|
B,>D G>A|B>c B>F|A>G B,>E|D2 A,>B,|
C>B, C>D|F>E F>E|(3DFA (3BAF|G2:|
|:B>c|d>B G>B|(3cdc A>F|G>F G>A|B>c d>B|
c>e g>e|d>B G>B|A>^c e>^c|d2 B>c|
d>B G>B|(3cdc A>F|G>F G>A|B>c d>B|
c>e g>e|d>B G>B|(3ABA (3DEF|G2:|
